packages/assets/static/images/icons/bold/traffic-cone--bold.svg

<svg width="24" height="24" viewBox="0 0 24 24" xmlns="http://www.w3.org/2000/svg">
<path d="M21.7499 19.5H20.2996L14.7374 3.50906C14.6095 3.14129 14.3702 2.82247 14.0529 2.59685C13.7355 2.37123 13.3558 2.25 12.9664 2.25H11.0333C10.6439 2.25 10.2642 2.37123 9.94687 2.59685C9.62952 2.82247 9.39029 3.14129 9.26238 3.50906L3.70019 19.5H2.24988C1.95151 19.5 1.66536 19.6185 1.45438 19.8295C1.2434 20.0405 1.12488 20.3266 1.12488 20.625C1.12488 20.9234 1.2434 21.2095 1.45438 21.4205C1.66536 21.6315 1.95151 21.75 2.24988 21.75H21.7499C22.0482 21.75 22.3344 21.6315 22.5454 21.4205C22.7564 21.2095 22.8749 20.9234 22.8749 20.625C22.8749 20.3266 22.7564 20.0405 22.5454 19.8295C22.3344 19.6185 22.0482 19.5 21.7499 19.5ZM9.21269 10.5H14.7871L16.0911 14.25H7.90863L9.21269 10.5ZM11.2996 4.5H12.7002L14.0043 8.25H9.9955L11.2996 4.5ZM7.12488 16.5H16.8749L17.9183 19.5H6.08238L7.12488 16.5Z"/>
</svg>

<svg viewBox="0 0 24 24" xmlns="http://www.w3.org/2000/svg" aria-hidden="true" fill="currentColor"><path d="M21.75 19.5H20.3L14.737 3.51a1.875 1.875 0 0 0-1.77-1.26h-1.934a1.875 1.875 0 0 0-1.77 1.26L3.7 19.5H2.25a1.125 1.125 0 1 0 0 2.25h19.5a1.125 1.125 0 0 0 0-2.25m-12.537-9h5.574l1.304 3.75H7.91zm2.087-6h1.4l1.304 3.75H9.996zm-4.175 12h9.75l1.043 3H6.082z"/></svg>
